packages/graphiql-react/src/icons/settings.svg

<svg
  height="1em"
  viewBox="0 0 21 20"
  fill="none"
  xmlns="http://www.w3.org/2000/svg"
>
  <path
    fill-rule="evenodd"
    clip-rule="evenodd"
    d="M9.29186 1.92702C9.06924 1.82745 8.87014 1.68202 8.70757 1.50024L7.86631 0.574931C7.62496 0.309957 7.30773 0.12592 6.95791 0.0479385C6.60809 -0.0300431 6.24274 0.00182978 5.91171 0.139208C5.58068 0.276585 5.3001 0.512774 5.10828 0.815537C4.91645 1.1183 4.82272 1.47288 4.83989 1.83089L4.90388 3.08019C4.91612 3.32348 4.87721 3.56662 4.78968 3.79394C4.70215 4.02126 4.56794 4.2277 4.39571 4.39994C4.22347 4.57219 4.01704 4.7064 3.78974 4.79394C3.56243 4.88147 3.3193 4.92038 3.07603 4.90814L1.8308 4.84414C1.47162 4.82563 1.11553 4.91881 0.811445 5.11086C0.507359 5.30292 0.270203 5.58443 0.132561 5.91671C-0.00508149 6.249 -0.0364554 6.61576 0.0427496 6.9666C0.121955 7.31744 0.307852 7.63514 0.5749 7.87606L1.50016 8.71204C1.68193 8.87461 1.82735 9.07373 1.92692 9.29636C2.02648 9.51898 2.07794 9.76012 2.07794 10.004C2.07794 10.2479 2.02648 10.489 1.92692 10.7116C1.82735 10.9343 1.68193 11.1334 1.50016 11.296L0.5749 12.1319C0.309856 12.3729 0.125575 12.6898 0.0471809 13.0393C-0.0312128 13.3888 9.64098e-05 13.754 0.13684 14.0851C0.273583 14.4162 0.509106 14.6971 0.811296 14.8894C1.11349 15.0817 1.46764 15.1762 1.82546 15.1599L3.0707 15.0959C3.31397 15.0836 3.5571 15.1225 3.7844 15.2101C4.01171 15.2976 4.21814 15.4318 4.39037 15.6041C4.56261 15.7763 4.69682 15.9827 4.78435 16.2101C4.87188 16.4374 4.91078 16.6805 4.89855 16.9238L4.83455 18.1691C4.81605 18.5283 4.90921 18.8844 5.10126 19.1885C5.2933 19.4926 5.5748 19.7298 5.90707 19.8674C6.23934 20.0051 6.60608 20.0365 6.9569 19.9572C7.30772 19.878 7.6254 19.6921 7.86631 19.4251L8.7129 18.4998C8.87547 18.318 9.07458 18.1725 9.29719 18.073C9.51981 17.9734 9.76093 17.9219 10.0048 17.9219C10.2487 17.9219 10.4898 17.9734 10.7124 18.073C10.935 18.1725 11.1341 18.318 11.2967 18.4998L12.1326 19.4251C12.3735 19.6921 12.6912 19.878 13.042 19.9572C13.3929 20.0365 13.7596 20.0051 14.0919 19.8674C14.4241 19.7298 14.7056 19.4926 14.8977 19.1885C15.0897 18.8844 15.1829 18.5283 15.1644 18.1691L15.1004 16.9238C15.0882 16.6805 15.1271 16.4374 15.2146 16.2101C15.3021 15.9827 15.4363 15.7763 15.6086 15.6041C15.7808 15.4318 15.9872 15.2976 16.2145 15.2101C16.4418 15.1225 16.685 15.0836 16.9282 15.0959L18.1735 15.1599C18.5326 15.1784 18.8887 15.0852 19.1928 14.8931C19.4969 14.7011 19.7341 14.4196 19.8717 14.0873C20.0093 13.755 20.0407 13.3882 19.9615 13.0374C19.8823 12.6866 19.6964 12.3689 19.4294 12.1279L18.5041 11.292C18.3223 11.1294 18.1769 10.9303 18.0774 10.7076C17.9778 10.485 17.9263 10.2439 17.9263 10C17.9263 9.75612 17.9778 9.51499 18.0774 9.29236C18.1769 9.06973 18.3223 8.87062 18.5041 8.70804L19.4294 7.87206C19.6964 7.63114 19.8823 7.31344 19.9615 6.9626C20.0407 6.61176 20.0093 6.245 19.8717 5.91271C19.7341 5.58043 19.4969 5.29892 19.1928 5.10686C18.8887 4.91481 18.5326 4.82163 18.1735 4.84014L16.9282 4.90414C16.685 4.91638 16.4418 4.87747 16.2145 4.78994C15.9872 4.7024 15.7808 4.56818 15.6086 4.39594C15.4363 4.2237 15.3021 4.01726 15.2146 3.78994C15.1271 3.56262 15.0882 3.31948 15.1004 3.07619L15.1644 1.83089C15.1829 1.4717 15.0897 1.11559 14.8977 0.811487C14.7056 0.507385 14.4241 0.270217 14.0919 0.132568C13.7596 -0.00508182 13.3929 -0.0364573 13.042 0.0427519C12.6912 0.121961 12.3735 0.307869 12.1326 0.574931L11.2914 1.50024C11.1288 1.68202 10.9297 1.82745 10.7071 1.92702C10.4845 2.02659 10.2433 2.07805 9.99947 2.07805C9.7556 2.07805 9.51448 2.02659 9.29186 1.92702ZM14.3745 10C14.3745 12.4162 12.4159 14.375 9.99977 14.375C7.58365 14.375 5.625 12.4162 5.625 10C5.625 7.58375 7.58365 5.625 9.99977 5.625C12.4159 5.625 14.3745 7.58375 14.3745 10Z"
    fill="currentColor"
  />
</svg>

<svg xmlns="http://www.w3.org/2000/svg" height="1em" fill="none" viewBox="0 0 21 20">
  <path fill="currentColor" fill-rule="evenodd" d="M9.292 1.927a1.7 1.7 0 0 1-.584-.427L7.866.575A1.741 1.741 0 0 0 4.84 1.83l.064 1.25a1.743 1.743 0 0 1-1.828 1.827l-1.245-.064A1.741 1.741 0 0 0 .575 7.876l.925.836a1.733 1.733 0 0 1 0 2.584l-.925.836a1.742 1.742 0 0 0 1.25 3.028l1.246-.064a1.74 1.74 0 0 1 1.828 1.828l-.064 1.245a1.741 1.741 0 0 0 3.031 1.256l.847-.925a1.732 1.732 0 0 1 2.584 0l.836.925a1.741 1.741 0 0 0 3.031-1.256l-.064-1.245a1.743 1.743 0 0 1 1.828-1.828l1.245.064a1.74 1.74 0 0 0 1.256-3.032l-.925-.836a1.732 1.732 0 0 1 0-2.584l.925-.836a1.742 1.742 0 0 0-1.255-3.032l-1.246.064A1.743 1.743 0 0 1 15.1 3.076l.064-1.245A1.742 1.742 0 0 0 12.133.575l-.842.925a1.73 1.73 0 0 1-2 .427M14.375 10a4.375 4.375 0 1 1-8.75 0 4.375 4.375 0 0 1 8.75 0" clip-rule="evenodd"/>
</svg>
